packages/core/src/svgs/tokens/branded/EGG.svg

<svg width="24" height="24" viewBox="0 0 24 24" fill="none" xmlns="http://www.w3.org/2000/svg">
<path d="M19.5 14.3262C19.5 18.5637 16.1419 22 12 22C7.85814 22 4.5 18.5645 4.5 14.3262C4.5 10.0875 6.9675 2 12 2C17.0319 2 19.5 10.0875 19.5 14.3262Z" fill="#0075FF"/>
<path d="M18.9353 17.2525C19.3097 16.3224 19.5013 15.3289 19.4997 14.3262C19.4997 10.0875 17.0316 2 11.9998 2C8.74036 2 6.5566 5.39313 5.42285 8.93563L18.9353 17.2525Z" fill="#87FFFF"/>
<path d="M9.88532 2.51688L8.20098 10.6457L5.42285 8.93564C6.29161 6.22314 7.77474 3.59814 9.88532 2.51688Z" fill="#AAFFFF"/>
<path d="M5.42313 8.93564C4.80625 10.8618 4.5 12.8332 4.5 14.3263C4.5 16.2775 5.2125 18.0587 6.38437 19.4132L8.20125 10.6457L5.42313 8.93564Z" fill="#91DCF1"/>
<path d="M19.499 14.3263C19.499 15.3626 19.2985 16.3507 18.9347 17.2526L15.124 14.9062V3.18564C18.0553 5.59002 19.499 11.0844 19.499 14.3263Z" fill="#43C6FD"/>
<path d="M19.4999 14.3263C19.4999 15.3625 19.2994 16.3507 18.9355 17.2525L15.103 14.8938L19.3494 12.3162C19.45 13.0413 19.4999 13.7225 19.4999 14.3263Z" fill="#44B5FD"/>
<path d="M6.38721 19.3957L15.1097 14.8982L8.20033 10.6457L6.38721 19.3957Z" fill="#3E91FF"/>
<path d="M15.124 21.3044V14.9062L18.9347 17.2526C18.211 19.0463 16.8422 20.4975 15.124 21.3044Z" fill="#0096FF"/>
</svg>

<svg xmlns="http://www.w3.org/2000/svg" width="24" height="24" fill="none" viewBox="0 0 24 24">
    <path fill="#0075FF" d="M19.5 14.326C19.5 18.564 16.142 22 12 22s-7.5-3.436-7.5-7.674S6.968 2 12 2s7.5 8.088 7.5 12.326"/>
    <path fill="#87FFFF" d="M18.935 17.253c.375-.93.566-1.924.565-2.927C19.5 10.088 17.032 2 12 2 8.74 2 6.557 5.393 5.423 8.936z"/>
    <path fill="#AFF" d="m9.885 2.517-1.684 8.129-2.778-1.71c.869-2.713 2.352-5.338 4.462-6.42"/>
    <path fill="#91DCF1" d="M5.423 8.936c-.617 1.926-.923 3.897-.923 5.39 0 1.951.713 3.733 1.884 5.087l1.817-8.767z"/>
    <path fill="#43C6FD" d="M19.499 14.326c0 1.037-.2 2.025-.564 2.927l-3.811-2.347V3.186c2.931 2.404 4.375 7.898 4.375 11.14"/>
    <path fill="#44B5FD" d="M19.5 14.326c0 1.037-.2 2.025-.564 2.927l-3.833-2.36 4.246-2.577c.101.725.15 1.406.15 2.01"/>
    <path fill="#3E91FF" d="m6.387 19.396 8.723-4.498-6.91-4.252z"/>
    <path fill="#0096FF" d="M15.124 21.304v-6.398l3.81 2.347a7.63 7.63 0 0 1-3.81 4.051"/>
</svg>
